ix/eraser-1_twotone.svg

<svg viewBox="0 0 24 24" fill="none" xmlns="http://www.w3.org/2000/svg" height="1em" width="1em">
  <path d="M9 22H21" stroke="#292D32" stroke-width="1.5" stroke-linecap="round" stroke-linejoin="round"/>
  <path d="M2.9107 17.5802L6.42071 21.0902C7.59071 22.2602 9.5007 22.2602 10.6607 21.0902L21.0908 10.6602C22.2608 9.49021 22.2608 7.58021 21.0908 6.42021L17.5807 2.91021C16.4107 1.74021 14.5008 1.74021 13.3408 2.91021L2.9107 13.3402C1.7407 14.5002 1.7407 16.4102 2.9107 17.5802Z" stroke="#292D32" stroke-width="1.5" stroke-linecap="round" stroke-linejoin="round"/>
  <g opacity="0.4">
    <path d="M7.11914 9.12988L14.8691 16.8799" stroke="#292D32" stroke-width="1.5" stroke-linecap="round" stroke-linejoin="round"/>
    <path d="M3.51953 17.66L9.16949 12" stroke="#292D32" stroke-width="1.5" stroke-linecap="round" stroke-linejoin="round"/>
    <path d="M6.33984 20.4901L11.9998 14.8301" stroke="#292D32" stroke-width="1.5" stroke-linecap="round" stroke-linejoin="round"/>
  </g>
</svg>

<svg viewBox="0 0 24 24" fill="none" xmlns="http://www.w3.org/2000/svg" height="1em" width="1em">
  <path d="M9 22h12M2.91 17.58l3.51 3.51a3 3 0 0 0 4.24 0l10.43-10.43a3 3 0 0 0 0-4.24l-3.51-3.51a3 3 0 0 0-4.24 0L2.91 13.34a3 3 0 0 0 0 4.24Z" stroke="#292D32" stroke-width="1.5" stroke-linecap="round" stroke-linejoin="round"/>
  <path d="m7.12 9.13 7.75 7.75m-11.35.78L9.17 12m-2.83 8.49L12 14.83" opacity=".4" stroke="#292D32" stroke-width="1.5" stroke-linecap="round" stroke-linejoin="round"/>
</svg>
